src/cmd/pl/sc_underlinedouble.svg

<svg viewBox="0 0 16 16" xmlns="http://www.w3.org/2000/svg"><path d="m4 2v11h-2v1h12v-1h-8v-4h3c1.65685 0 3-1.567 3-3.5s-1.34315-3.5-3-3.5h-3-1zm2 2h.3125 2.6875c1.10457 0 2 .89543 2 2s-.89543 2-2 2h-2.09375-.90625zm-4 11v1h12v-1z" fill="#232629"/></svg>

<?xml version="1.0" encoding="UTF-8" standalone="no"?>
<svg
   xmlns:dc="http://purl.org/dc/elements/1.1/"
   xmlns:cc="http://creativecommons.org/ns#"
   xmlns:rdf="http://www.w3.org/1999/02/22-rdf-syntax-ns#"
   xmlns:svg="http://www.w3.org/2000/svg"
   xmlns="http://www.w3.org/2000/svg"
   xmlns:sodipodi="http://sodipodi.sourceforge.net/DTD/sodipodi-0.dtd"
   xmlns:inkscape="http://www.inkscape.org/namespaces/inkscape"
   viewBox="0 0 16 16"
   version="1.1"
   id="svg4"
   sodipodi:docname="sc_underlinedouble.svg"
   inkscape:version="0.92.5 (2060ec1f9f, 2020-04-08)"
   inkscape:export-filename="/home/jupiter007/Libreoffice yaru theme fullcolor/build/cmd/pl/sc_underlinedouble.png"
   inkscape:export-xdpi="96"
   inkscape:export-ydpi="96">
  <metadata
     id="metadata10">
    <rdf:RDF>
      <cc:Work
         rdf:about="">
        <dc:format>image/svg+xml</dc:format>
        <dc:type
           rdf:resource="http://purl.org/dc/dcmitype/StillImage" />
      </cc:Work>
    </rdf:RDF>
  </metadata>
  <defs
     id="defs8" />
  <sodipodi:namedview
     pagecolor="#ffffff"
     bordercolor="#666666"
     borderopacity="1"
     objecttolerance="10"
     gridtolerance="10"
     guidetolerance="10"
     inkscape:pageopacity="0"
     inkscape:pageshadow="2"
     inkscape:window-width="1920"
     inkscape:window-height="1011"
     id="namedview6"
     showgrid="true"
     inkscape:zoom="41.7193"
     inkscape:cx="4.405237"
     inkscape:cy="4.3475004"
     inkscape:window-x="0"
     inkscape:window-y="32"
     inkscape:window-maximized="1"
     inkscape:current-layer="svg4">
    <inkscape:grid
       type="xygrid"
       id="grid827" />
  </sodipodi:namedview>
  <path
     style="opacity:0.6;fill:#000000;stroke:#000000;stroke-width:2;stroke-linejoin:round;stroke-miterlimit:4;stroke-dasharray:none"
     d="M 4 2 L 4 13 L 6 13 L 6 9 L 9 9 C 10.65685 9 12 7.4329997 12 5.5 C 12 3.567 10.65685 2 9 2 L 6 2 L 5 2 L 4 2 z M 6 4 L 6.3125 4 L 9 4 C 10.10457 4 11 4.8954303 11 6 C 11 7.1045701 10.10457 8 9 8 L 6.90625 8 L 6 8 L 6 4 z "
     id="path835" />
  <path
     d="M 4,2.0000001 V 13 H 6 V 8.9999999 h 3 c 1.65685,0 3,-1.567 3,-3.4999997 0,-1.933 -1.34315,-3.5 -3,-3.5 H 6 5 Z M 6,4.0000002 H 6.3125 9 c 1.10457,0 2,0.8954299 2,1.9999996 0,1.1045701 -0.89543,2 -2,2 H 6.90625 6 Z"
     id="path821"
     inkscape:connector-curvature="0"
     style="fill:#ffffff" />
  <path
     style="opacity:0.6;fill:#000000;stroke:#000000;stroke-width:2;stroke-linejoin:round;stroke-miterlimit:4;stroke-dasharray:none"
     d="M 2 12 L 2 13 L 14 13 L 14 12 L 2 12 z M 2 14 L 2 15 L 14 15 L 14 14 L 2 14 z "
     id="path826" />
  <path
     d="m 2,14 v 1 h 12 v -1 z"
     id="path2"
     inkscape:connector-curvature="0"
     style="fill:#ffffff" />
  <path
     style="fill:#ffffff"
     inkscape:connector-curvature="0"
     id="path829"
     d="m 2,12 v 1 h 12 v -1 z" />
</svg>
